X:1
T:Rigida Eurilla
T:Rigida Eurilla
T:Gio.Girolamo Kapsperger
C:Gio.Girolamo Kapsperger
%%score 1 { ( 2 4 ) | 3 }
L:1/8
Q:1/4=120
M:3/4
K:F
V:1 treble nm="Soprano" snm="S"
V:2 treble nm="BC" snm="BC"
V:4 treble 
V:3 bass 
V:1
 A2 B2 c2 | d4 c2 | B4 A2 | G4 E2 | AB cd B2 | FG AB cA | BA G4 | F6 :: c2 c2 B2 | A4 G2 | %10
w: Ri- gi- da'Eu-|ril- la|che scin-|til- la|nel _ tuo _ cor|d'A- * * * mor _|non _ sen-|ti,|da miei la-|men- ti|
w: Lu- sin- ga'il|co- re,|dol- ce'A-|mo- re,|co'l _ te- * sor|di _ _ _ tua _|bel- * ta-|de,|tua cru- del-|ta- de,|
w: Se mai ri-|cet- to,|nel bel|pet- to,|A- * pri'al _ fo-|c'on- * d'in _ mi _|sfac- * *|cio,|se'l du- ro|giac- co,|
 A3 =B/c/ dF | G4 G2 | c2 d2 _ed | cB AG AB | cB A3 B | G4 G2 | z6 | d2 d2 c2 | B4 A2 | G2 G2 c2 | %20
w: sprez- * * * z'il|suo- no,|e mi ne- *|gh'un _ sguar- * * *|* * * do'in|do- no,||dun- que'a mia|vi- t'a-|cer- ba, qual|
w: tra _ _ _ so-|spi- ri,|pos- cia'il nu- *|tr'e _ tra _ mar- *||ti- ri,||e per- che'a|tor- to'io|muo- ia, mi|
w: fia _ _ _ mai|sciol- to,|che t'in as- *|pra- _ il _ se- *|* * no e'l|vol- to,||d'A- mor' so-|a- vi|dar- di, ben|
 dc BA GF | G4 A2 | BA G4 | F6 :| %24
w: gui- * der _ _ _|don si|ser- * *|ba.|
w: fu- * ri'- ogn- ni _|tua gio-|i- * *|a.|
w: spe- * ro _ mil- *|le sguar-||di.|
V:2
 [Ac]2 [Fd]2 [G_e]2 | [Fd]4 [EA]2 | [Dd]2 [FA]2 [Ac]2 | [G=B]2 [EG]4 | [DF]2 [EA]2 [DB]2 | %5
 [Ac]2 [Bd]2 [Ac]2 | [DB]2 c4 | A6 :: [FA]2 [CE]2 [DB]2 | [Ac]2 [FA]2 [Gc]2 | [CA]2 [CG]2 [F=B]2 | %11
 [Ec]4 [Gc]2 | [Gc]2 [FA]2 [Gc]2 | [Fd]2 [GB]2 [FA]2 | [_EG]2 [DG]2 [D^F]2 | [DGB]6 | %16
 [FAd]2 [Gc]2 [Ad]2 | [DB]2 [Fd]2 [CA]2 | [DG]2 [Gc]2 [Ac]2 | [Ec]4 [EA]2 | [DF]4 [FA]2 | %21
 [Ec]2 [G=B]2 [CA]2 | d2 c4 | [CFA]6 :| %24
V:3
 F,2 D,2 C,2 | B,,2 B,2 A,2 | G,2 D,2 F,2 | E,2 C,4 | B,,2 A,,2 G,,2 | A,,2 G,,2 F,,2 | B,,2 C,4 | %7
 F,,6 :: F,2 A,2 G,2 | F,2 D,2 E,2 | F,2 E,2 D,2 | C,4 C,2 | _E,2 D,2 C,2 | D,2 _E,2 D,2 | %14
 C,2 [D,A,]4 | [G,,G,]6 | D,2 E,2 ^F,2 | G,2 B,2 A,2 | G,2 E,2 F,2 | C,4 A,,2 | B,,4 D,2 | %21
 C,2 E,2 F,2 | B,,2 C,4 | F,,6 :| %24
V:4
 x6 | x6 | x6 | x6 | x6 | x6 | D2 F2 E2 | [CF]6 :: x6 | x6 | x6 | x6 | x6 | x6 | x6 | x6 | x6 | %17
 x6 | x6 | x6 | x6 | x6 | F4 E2 | x6 :| %24

